X: 1
T: Reed's Reel
C: R-95
M: C|
Z: Transcribed to abc by Mary Lou Knack
R: reel
K: Am
"Am"a2g2 edc2| A8| a2g2 edc2| "E"e8|
"Am"a2g2 edc2| "F"A4 cAc2| "E"E4 GEG2| "Am"A8 :|
|:\
"Am"e2d2 cAc2| A8| e2d2 cAc2| "E"e8|
"Am"e2d2 cAc2| "F"A4 cAc2| "E"E4 GEG2| "Am"A8 :|
%%text 9/1/98
